X: 11512
M: 3/4
L: 1/8
K: G
c2cBc2 | c2cBc2 | d2(d^c)(dc) | d4G2 |\
d2d^cd2 | e2e^de2 | g4e2 | (ed)d2B2 |\
(dc)c2A2 | G2(GF)(GF) | G4 :|
|: (AG) |\
|: (3(ded) |\
c4(3(DED) | F4(3(ded) | c2A2d2 | (3(cdc)A2d2 |\
|: (Bc) |\
d3ed2 | d2b2a2 | g2f2f2 | f2c'2b2 |\
a2g2g2 | (ag)f2e2 | d3ed2 | (dc)B2A2 |
d3ed2 | d2b2a2 | g2f2f2 | f2c'2b2 |\
a2g2g2 | (ag)f2e2 | d3ed2 | (dc)B2A2 |\
gfgfgf | gfagfe | d2g2b2 | (ba)g2f2 |\
g3DGB |
gfagfe | dgfed^c | dedcBA | G2(GF)(GF) |\


